X:1
T:My Way
C:1969 - Claude François / Gilles Thibaut / Jacques Revaux / Paul Anka
Z:Copyright © www/realbook.site
L:1/8
M:4/4
I:linebreak $
K:C
V:1 treble nm=" " snm=" "
V:1
 G, |:"C" E4 z G, ED |"Em/B" E4 z G, ED |"Gm6/Bb" E4 z D ED |"A7" D2 ^C4 A,2 |$"Dm" F4 z A, FE | %6
"Dm7" F4 z A, FE |"G7" F4 z G GD |"C" F2 E4 z ^F |$"C" G4 z ^F GA |"C7" G4 z A EG |"F" F4 z F FE | %12
"Fm" G2 F4 z F |$"C" E4 z G, FE |"G7" D4 (3B,2 C2 D2 |"F6" D8 |1"C" C6 z G, :|2 %17
"C" C4 (3E2 F2 G2 ||$"C" G4 z A G^F |"C7" G4 z ^F GA |"F" A4 z G AG | A4 z A Bc |$"Dm7" c4 z A dc | %23
"G7" B4 z B cd |"Em7" d4 z e Bd |"Am7" c4 z A Bc |$"Dm7" c4 z A cA |"G7" B4 z B cd |"F6" d8 | %29
"C" c6 z2 |] %30

